assets/img/bed.svg

<svg 
 xmlns="http://www.w3.org/2000/svg"
 xmlns:xlink="http://www.w3.org/1999/xlink"
 width="50px" height="50px">
<path fill-rule="evenodd"  fill-opacity="0" fill="rgb(33, 130, 238)"
 d="M0.000,0.000 L50.000,0.000 L50.000,50.000 L0.000,50.000 L0.000,0.000 Z"/>
<path fill-rule="evenodd"  fill="rgb(0, 111, 235)"
 d="M45.134,29.180 L45.134,29.127 L45.134,21.003 C45.134,17.345 42.567,16.000 40.160,16.000 L9.679,16.000 C7.273,16.000 4.706,17.291 4.706,21.003 L4.706,29.127 L4.706,29.180 C2.299,29.449 0.000,31.063 0.000,34.775 L0.000,41.123 C0.000,42.199 0.856,43.060 1.925,43.060 L2.567,43.060 L2.567,48.063 C2.567,49.139 3.422,50.000 4.492,50.000 L6.310,50.000 C7.380,50.000 8.235,49.139 8.235,48.063 L8.235,43.006 L41.765,43.006 L41.765,48.063 C41.765,49.139 42.620,50.000 43.690,50.000 L45.508,50.000 C46.577,50.000 47.433,49.139 47.433,48.063 L47.433,43.006 L48.075,43.006 C49.144,43.006 50.000,42.146 50.000,41.070 L50.000,34.775 C49.840,31.063 47.540,29.449 45.134,29.180 ZM6.524,21.003 L6.631,21.003 C6.631,18.475 8.289,17.937 9.679,17.937 L40.160,17.937 C41.551,17.937 43.209,18.475 43.209,21.003 L43.209,29.127 L41.765,29.127 L41.765,24.500 C41.765,23.424 40.909,22.563 39.840,22.563 L28.075,22.563 C27.005,22.563 26.150,23.424 26.150,24.500 L26.150,29.127 L23.904,29.127 L23.904,24.500 C23.904,23.424 23.048,22.563 21.979,22.563 L10.214,22.563 C9.144,22.563 8.289,23.424 8.289,24.500 L8.289,29.127 L6.524,29.127 L6.524,21.003 ZM39.840,24.500 L39.840,29.127 L28.075,29.127 L28.075,24.500 L39.840,24.500 ZM22.085,24.500 L22.085,29.127 L10.321,29.127 L10.321,24.500 L22.085,24.500 ZM6.257,48.063 L4.439,48.063 L4.439,43.006 L6.257,43.006 L6.257,48.063 ZM45.401,48.063 L43.583,48.063 L43.583,43.006 L45.401,43.006 L45.401,48.063 ZM47.914,41.123 L45.401,41.123 L43.583,41.123 L6.257,41.123 L4.439,41.123 L1.872,41.123 L1.872,38.272 L47.914,38.272 L47.914,41.123 ZM47.914,36.335 L1.872,36.335 L1.872,34.775 C1.872,31.548 4.225,31.063 5.561,31.063 L6.577,31.063 L10.267,31.063 L22.032,31.063 L28.075,31.063 L39.840,31.063 L43.209,31.063 L44.225,31.063 C45.615,31.063 47.914,31.548 47.914,34.775 L47.914,36.335 L47.914,36.335 Z"/>
</svg>

<svg id="Слой_1" data-name="Слой 1" xmlns="http://www.w3.org/2000/svg" viewBox="0 0 50 50"><defs><style>.cls-1{fill:#2182ee;fill-opacity:0;}.cls-2{fill:#11a2f6;}</style></defs><title>bed</title><path class="cls-1" d="M0,0H50V50H0Z"/><path class="cls-2" d="M45.13,29.18V21a4.64,4.64,0,0,0-5-5H9.68c-2.41,0-5,1.29-5,5v8.18C2.3,29.45,0,31.06,0,34.78v6.34a1.92,1.92,0,0,0,1.92,1.94h.65v5A1.92,1.92,0,0,0,4.49,50H6.31a1.92,1.92,0,0,0,1.92-1.94V43H41.76v5.05A1.93,1.93,0,0,0,43.69,50h1.82a1.92,1.92,0,0,0,1.92-1.94V43h.65A1.92,1.92,0,0,0,50,41.07V34.78C49.84,31.06,47.54,29.45,45.13,29.18ZM6.52,21h.11a2.74,2.74,0,0,1,3.05-3.06H40.16A2.74,2.74,0,0,1,43.21,21v8.13H41.76V24.5a1.92,1.92,0,0,0-1.92-1.94H28.08a1.92,1.92,0,0,0-1.93,1.94v4.63H23.9V24.5A1.92,1.92,0,0,0,22,22.56H10.21A1.92,1.92,0,0,0,8.29,24.5v4.63H6.52Zm33.32,3.5v4.63H28.08V24.5Zm-17.76,0v4.63H10.32V24.5ZM6.26,48.06H4.44V43H6.26Zm39.14,0H43.58V43H45.4Zm2.51-6.94h-46V38.27h46Zm0-4.79h-46V34.78a3.37,3.37,0,0,1,3.69-3.72H44.22c1.4,0,3.69.49,3.69,3.72v1.55Z"/></svg>
